icons/arrow-tray-left.svg

<svg xmlns="http://www.w3.org/2000/svg" width="24" height="24" viewBox="0 0 24 24">
  <path d="M21,14 C21.5522847,14 22,14.4477153 22,15 L22,15 L22,19 L21.9949073,19.1762728 C21.9036609,20.75108 20.5976809,22 19,22 L19,22 L5,22 L4.82372721,21.9949073 C3.24891996,21.9036609 2,20.5976809 2,19 L2,19 L2,15 L2.00672773,14.8833789 C2.06449284,14.3860402 2.48716416,14 3,14 C3.55228475,14 4,14.4477153 4,15 L4,15 L4,19 L4.00672773,19.1166211 C4.06449284,19.6139598 4.48716416,20 5,20 L5,20 L19,20 L19.1166211,19.9932723 C19.6139598,19.9355072 20,19.5128358 20,19 L20,19 L20,15 L20.0067277,14.8833789 C20.0644928,14.3860402 20.4871642,14 21,14 Z M10.9497475,3.05025253 C11.3102314,3.41073649 11.337961,3.97796755 11.0329361,4.37025876 L10.9497475,4.46446609 L8.414,6.99935931 L18,7 L18.1166211,7.00672773 C18.6139598,7.06449284 19,7.48716416 19,8 C19,8.51283584 18.6139598,8.93550716 18.1166211,8.99327227 L18,9 L8.414,8.99935931 L10.9497475,11.5355339 L11.0329361,11.6297412 C11.337961,12.0220325 11.3102314,12.5892635 10.9497475,12.9497475 C10.5892635,13.3102314 10.0220325,13.337961 9.62974124,13.0329361 L9.53553391,12.9497475 L5.29289322,8.70710678 L5.21968877,8.62544899 C5.21739784,8.62259451 5.21512226,8.6197272 5.21286214,8.61684717 C5.2029095,8.60416028 5.19627953,8.5953343 5.1898147,8.58642573 C5.17541687,8.56645332 5.16150681,8.54569831 5.14837237,8.52441383 C5.13863517,8.5087703 5.12981337,8.49354877 5.12142608,8.47815341 L5.10754244,8.45163285 L5.10754244,8.45163285 L5.09418712,8.42423782 C5.08521338,8.40515557 5.07691653,8.38585512 5.06925531,8.36636263 C5.06288066,8.35023645 5.05681015,8.33355271 5.0511777,8.31666861 C5.04489462,8.29759761 5.03927656,8.27886083 5.03421911,8.26000498 L5.0207262,8.20352694 L5.0207262,8.20352694 L5.01090541,8.14771218 L5.01090541,8.14771218 L5.003,8.08135931 L5.001,8.01935931 L5.001,8.05435931 L5.00019915,8.02001892 L5.00019915,8.02001892 L5.0001833,7.98065911 L5.0001833,7.98065911 C5.0006228,7.95754311 5.00188502,7.93411691 5.00396641,7.91074993 L5.01101934,7.85103878 L5.01101934,7.85103878 C5.01366783,7.8337848 5.01679589,7.81609407 5.020402,7.79848174 L5.03489399,7.73718549 L5.03489399,7.73718549 C5.03972549,7.71964515 5.04514099,7.70166106 5.05107328,7.68381105 C5.05681015,7.66644729 5.06288066,7.64976355 5.06937575,7.63329368 L5.09375718,7.57659898 L5.09375718,7.57659898 C5.10399512,7.55479635 5.11503374,7.53328872 5.12681067,7.51225033 C5.13271731,7.5015317 5.1389112,7.4909214 5.14531687,7.48040379 C5.15842699,7.45904955 5.17226707,7.43814667 5.1868509,7.41781334 L5.22,7.37435931 L5.29289322,7.29289322 L5.29289322,7.29289322 L9.53553391,3.05025253 L9.62974124,2.96706393 C10.0220325,2.66203903 10.5892635,2.68976857 10.9497475,3.05025253 Z"/>
</svg>

<svg xmlns="http://www.w3.org/2000/svg" viewBox="0 0 24 24">
  <path d="M21 14a1 1 0 0 1 1 1v4.18A3 3 0 0 1 19 22H4.82A3 3 0 0 1 2 19v-4.12A1 1 0 0 1 4 15v4.12A1 1 0 0 0 5 20h14.12a1 1 0 0 0 .88-1v-4.12a1 1 0 0 1 1-.88zM10.95 3.05a1 1 0 0 1 .08 1.32l-.08.1L8.41 7h9.71a1 1 0 0 1 0 2H8.4l2.54 2.54.08.09a1 1 0 0 1-1.4 1.4l-.1-.08L5.3 8.71l-.07-.08a1 1 0 0 1-.1-.15l-.01-.03-.02-.03a.97.97 0 0 1-.06-.16V8.2L5 8.15v-.13.03-.07a1 1 0 0 1 0-.07l.01-.06.01-.05.01-.06a1.08 1.08 0 0 1 .04-.1l.02-.06a1.02 1.02 0 0 1 .1-.16l.03-.05.07-.08 4.25-4.24.09-.08a1 1 0 0 1 1.32.08z"/>
</svg>
